src/assets/images/footer_icons/t.svg

<svg width="40" height="40" viewBox="0 0 40 40" fill="none" xmlns="http://www.w3.org/2000/svg">
<circle cx="20" cy="20" r="19.25" stroke="#FF8F3E" stroke-width="1.5"/>
<path d="M29.712 14.8136C28.979 15.1212 28.1979 15.3251 27.3835 15.424C28.2213 14.9456 28.8607 14.1938 29.1613 13.2875C28.3802 13.733 27.5178 14.0476 26.5987 14.2232C25.8571 13.4678 24.8 13 23.6469 13C21.4096 13 19.6084 14.737 19.6084 16.8664C19.6084 17.1728 19.6355 17.4674 19.702 17.7479C16.3423 17.5912 13.3695 16.051 11.3724 13.7047C11.0238 14.2833 10.8193 14.9456 10.8193 15.6585C10.8193 16.9973 11.54 18.1839 12.6143 18.871C11.965 18.8592 11.3281 18.6789 10.7885 18.3949C10.7885 18.4067 10.7885 18.422 10.7885 18.4373C10.7885 20.3157 12.1893 21.876 14.0262 22.2354C13.6972 22.3214 13.3387 22.3627 12.9667 22.3627C12.7079 22.3627 12.4468 22.3485 12.2016 22.2967C12.7252 23.8275 14.211 24.9529 15.9777 24.9894C14.6028 26.0182 12.857 26.638 10.9671 26.638C10.6357 26.638 10.3179 26.6239 10 26.585C11.7901 27.6892 13.9116 28.3197 16.1994 28.3197C23.6358 28.3197 27.7014 22.4275 27.7014 17.3201C27.7014 17.1493 27.6952 16.9843 27.6866 16.8205C28.4886 16.276 29.1625 15.5961 29.712 14.8136Z" fill="#FF8F3E"/>
</svg>

<svg width="40" height="40" fill="none" xmlns="http://www.w3.org/2000/svg"><circle cx="20" cy="20" r="19.25" stroke="#FF8F3E" stroke-width="1.5"/><path d="M29.712 14.814a8.721 8.721 0 01-2.328.61 3.879 3.879 0 001.777-2.136 8.301 8.301 0 01-2.562.935A4.137 4.137 0 0023.647 13c-2.237 0-4.039 1.737-4.039 3.866 0 .307.027.601.094.882-3.36-.157-6.333-1.697-8.33-4.043a3.764 3.764 0 00-.553 1.954c0 1.338.721 2.525 1.795 3.212a4.13 4.13 0 01-1.825-.476v.042c0 1.879 1.4 3.439 3.237 3.798a4.208 4.208 0 01-1.06.128c-.258 0-.52-.014-.764-.066.523 1.53 2.009 2.656 3.776 2.692a8.357 8.357 0 01-5.01 1.649c-.332 0-.65-.014-.968-.053a11.755 11.755 0 006.2 1.735c7.436 0 11.501-5.893 11.501-11 0-.17-.006-.336-.014-.5a7.88 7.88 0 002.025-2.006z" fill="#FF8F3E"/></svg>
